X: 1
T: Miss Eireann MacInnes Reel
C: Dave MacIsaac
R: reel
S: Fiddle Hell Online 2021-4-15 handout for Wendy MacIsaac workshop
Z: 2021 John Chambers <jc:trillian.mit.edu>
M: C|
L: 1/8
K: Amix
"^A"|:\
A2ed e2e2 | edef gfe2 | dedc B/B/B d2 | dGBd edBG || AAed e2e2 | edef gfe2 |
degd edBd | egBd [1 eA A/A/A :|2 eAAe "^B"|: agea gea2 | aeag agea | gage gdde |
gafg edg2 || agea gea2 | aeag agef | gage gdda | gedB [1 eA A/A/A :|[2 A2eA |]
